X: 125
T: Cantantibus organis – Andantino
C: Franciszek Walczyński
%%abc-version 2.0
%%abcx-abcm2ps-target-version 5.9.1 (29 Sep 2008)
%%abc-creator hum2abc beta
%%abcx-conversion-date 2021/10/04 07:38:41
%%abc-edited-by Kamil Watkowski
%%abcx-initial-encoding-date 2021-08-09
%%humdrum-veritas 1010343388
%%humdrum-veritas-data 1770387952
%%linebreak <none>
%%barnumbers 0
L: 1/8
M: 2/4
N: Derived from pl-kozmzk--mzk-m-346--027_walczynski-franciszek--cantantibus-organis-andantino.krn
Q: "Andantino."
%%staves {1 2}
V: 1 clef=treble
V: 2 clef=bass
K: E
[V:1] G2A2 | 
[V:2] EB,CD | 
[V:1] GBed | 
[V:2] EDCB, | 
[V:1] c>B Ac | 
[V:2] A,A/G/ FE | 
[V:1] B2A2 | 
[V:2] DB,CD | 
[V:1] G2AG | 
[V:2] EDCB, | 
[V:1] FGFE | 
[V:2] A,2^A,2 | 
[V:1] D2EB, | 
[V:2] B,A,G,2 | 
[V:1] C2DC | 
[V:2] A,G,F,E, | 
[V:1] B,2CD | 
[V:2] D,G,A,B, | 
[V:1] EB,- B,/A,/G,/A,/ | 
[V:2] G,2F,B,, | 
[V:1] G,>A,B,2 | 
[V:2] E,>F,G,2 | 
[V:1] z4 | 
[V:2] .F,.B,,!accent!A,G,/F,/ | 
[V:1] z4 | 
[V:2] .G,.E,!accent!B,A,/G,/ | 
[V:1] .F.B,!accent!AG/F/ | 
[V:2] A,2F,2 | 
[V:1] .G.E!accent!BA/G/ | 
[V:2] E,2G,A,/B,/ | 
[V:1] edcB | 
[V:2] CB,A,G, | 
[V:1] A4- | 
[V:2] F,.F/.E/ DC | 
[V:1] ADEF- | 
[V:2] ^B,4 | 
[V:1] FE/D/ E^E | 
[V:2] C3=B, | 
[V:1] FCDE- | 
[V:2] ^A,4 | 
[V:1] ED/C/D2 | 
[V:2] B,3=A, | 
[V:1] EB,CA | 
[V:2] G,2A,F, | 
[V:1] G/F/E/D/E2 | 
[V:2] E,/F,/G,/B,/E,2 | 
[V:1] =c2BA | 
[V:2] A,,2B,,=C, | 
[V:1] G2FE | 
[V:2] E,B,A,G, | 
[V:1] DEFD | 
[V:2] F,G,A,B,/A,/ | 
[V:1] EFG2 | 
[V:2] G,B, E=D | 
[V:1] e2=d=c | 
[V:2] =C2B,A, | 
[V:1] B2AG | 
[V:2] ^G,GFE | 
[V:1] BFGA | 
[V:2] ^D2B,2 | 
[V:1] GAB2 | 
[V:2] EFG2 | 
[V:1] gfed | 
[V:2] edcB | 
[V:1] fedc | 
[V:2] AGFE | 
[V:1] BAGF | 
[V:2] DCB,A, | 
[V:1] EB,CD | 
[V:2] G,2A,B, | 
[V:1] EDCB, | 
[V:2] G,F,E,D, | 
[V:1] A,G,F,E, | 
[V:2] C,B,,A,,^A,, | 
[V:1] G,A,F,2 | 
[V:2] B,,C,=A,,B,, | 
[V:1] !fermata!E,4 |]  
[V:2] !fermata!E,,4 |]  


